X:121
T:French Stroller. WM.121
M:3/2
L:1/8
Q:1/2=100
S:Wm.Mittell’s MS, New Romney,Kent,1799
R:.Triple Hornpipe
O:England
A:Kent
Z:vmp.Chris Partington
K:A
a2(ed) cBAGA2A,2|CEAc dfBA GBD2|d2cB cedc BAGB|!
A2GF EDCB, A,4:|\
|:BcAB GEGBe4|d2fe dcBAG2B2|!
ceaf dBce ^dfeg|fgag fef^d(e4|\
e2)(=dc) dfaf ecBA|!
B3c dBcA GBE2|d2cB cedc BAGB|A2(GF) EDCB,A,4:|

